src/components/common/icons/umbrella.svg

<svg height="55" viewBox="0 0 53 55" width="53" xmlns="http://www.w3.org/2000/svg"><path d="m26.3919121.53560294c-14.1574242 0-25.63433331 11.55970586-25.63433331 25.81926466v2.8664706c2.35930303-2.365 5.45257576-3.5475 8.54424242-3.5475 3.09327269 0 6.18493939 1.1825 8.54424239 3.5475 1.8148485-1.8198529 4.0617273-2.9344117 6.4097879-3.3566176v22.0048529c0 3.5588236 2.8748485 6.4544118 6.4081818 6.4544118 3.5333334 0 6.4081819-2.8955882 6.4081819-6.4544118h-4.2721213c0 1.187353-.9572121 2.1514706-2.1360606 2.1514706-1.1772424 0-2.1360606-.9641176-2.1360606-2.1514706v-22.0048529c2.3464546.4222059 4.5933334 1.5383823 6.4065758 3.3566176 2.359303-2.365 5.4525757-3.5475 8.5442424-3.5475 3.0932727 0 6.1849394 1.1825 8.5442424 3.5475v-2.8664706c0-14.2595588-11.4736969-25.81926466-25.6311212-25.81926466m17.0868788 20.83529416c-3.0627576 0-5.9986364.8379411-8.5442424 2.4102941-2.5456061-1.572353-5.4798788-2.4102941-8.5442424-2.4102941-3.0627576 0-5.9986364.8379411-8.5442425 2.4102941-2.545606-1.572353-5.4798788-2.4102941-8.54424239-2.4102941-1.29287879 0-2.56487879.1488235-3.79190909.4383823 2.0750303-9.6864706 10.64978788-16.97235293 20.88199998-16.97235293 10.2306061 0 18.8037576 7.28588233 20.880394 16.97235293-1.2286364-.2895588-2.4990303-.4383823-3.7935152-.4383823" fill="#010202" fill-rule="evenodd"/></svg>

<?xml version="1.0" encoding="UTF-8"?>
<svg width="53px" height="55px" viewBox="0 0 53 55" version="1.1" xmlns="http://www.w3.org/2000/svg" xmlns:xlink="http://www.w3.org/1999/xlink">
    <!-- Generator: Sketch 52.5 (67469) - http://www.bohemiancoding.com/sketch -->
    <title>Icons/.umbrella</title>
    <desc>Created with Sketch.</desc>
    <g id="Vapaaehtoisalusta-Layouts" stroke="none" stroke-width="1" fill="none" fill-rule="evenodd">
        <g id="HKI-Ikonit" transform="translate(-359.000000, -241.000000)" fill="#010202">
            <g id="Icons/.umbrella" transform="translate(359.000000, 241.000000)">
                <path d="M26.3919121,0.535602941 C12.2344879,0.535602941 0.757578788,12.0953088 0.757578788,26.3548676 L0.757578788,29.2213382 C3.11688182,26.8563382 6.21015455,25.6738382 9.30182121,25.6738382 C12.3950939,25.6738382 15.4867606,26.8563382 17.8460636,29.2213382 C19.6609121,27.4014853 21.9077909,26.2869265 24.2558515,25.8647206 L24.2558515,47.8695735 C24.2558515,51.4283971 27.1307,54.3239853 30.6640333,54.3239853 C34.1973667,54.3239853 37.0722152,51.4283971 37.0722152,47.8695735 L32.8000939,47.8695735 C32.8000939,49.0569265 31.8428818,50.0210441 30.6640333,50.0210441 C29.4867909,50.0210441 28.5279727,49.0569265 28.5279727,47.8695735 L28.5279727,25.8647206 C30.8744273,26.2869265 33.1213061,27.4031029 34.9345485,29.2213382 C37.2938515,26.8563382 40.3871242,25.6738382 43.4787909,25.6738382 C46.5720636,25.6738382 49.6637303,26.8563382 52.0230333,29.2213382 L52.0230333,26.3548676 C52.0230333,12.0953088 40.5493364,0.535602941 26.3919121,0.535602941 M43.4787909,21.3708971 C40.4160333,21.3708971 37.4801545,22.2088382 34.9345485,23.7811912 C32.3889424,22.2088382 29.4546697,21.3708971 26.3903061,21.3708971 C23.3275485,21.3708971 20.3916697,22.2088382 17.8460636,23.7811912 C15.3004576,22.2088382 12.3661848,21.3708971 9.30182121,21.3708971 C8.00894242,21.3708971 6.73694242,21.5197206 5.50991212,21.8092794 C7.58494242,12.1228088 16.1597,4.83692647 26.3919121,4.83692647 C36.6225182,4.83692647 45.1956697,12.1228088 47.2723061,21.8092794 C46.0436697,21.5197206 44.7732758,21.3708971 43.4787909,21.3708971" id="Fill-55"></path>
            </g>
        </g>
    </g>
</svg>
